source/images/icons/spreadsheet.svg

<svg xmlns="http://www.w3.org/2000/svg" viewBox="0 0 24 24" enable-background="new 0 0 24 24"><path d="M2 3v18h20V3H2zm12 2v2h-4V5h4zm-4 6V9h4v2h-4zm4 2v2h-4v-2h4zM4 5h4v2H4V5zm0 4h4v2H4V9zm0 4h4v2H4v-2zm0 6v-2h4v2H4zm6 0v-2h4v2h-4zm10 0h-4v-2h4v2zm0-4h-4v-2h4v2zm0-4h-4V9h4v2zm0-4h-4V5h4v2z"/></svg>

<?xml version="1.0" encoding="utf-8"?>
<!-- Generator: Adobe Illustrator 19.2.0, SVG Export Plug-In . SVG Version: 6.00 Build 0)  -->
<svg version="1.1" id="Layer_1" xmlns="http://www.w3.org/2000/svg" xmlns:xlink="http://www.w3.org/1999/xlink" x="0px" y="0px"
	 viewBox="0 0 24 24" style="enable-background:new 0 0 24 24;" xml:space="preserve">
<style type="text/css">
	.st0{fill:#767676;}
</style>
<path class="st0" d="M2,3v18h2h4h2h4h2h4h2V3H2z M14,5v2h-4V5H14z M10,11V9h4v2H10z M14,13v2h-4v-2H14z M4,5h4v2H4V5z M4,9h4v2H4V9z
	 M4,13h4v2H4V13z M4,19v-2h4v2H4z M10,19v-2h4v2H10z M20,19h-4v-2h4V19z M20,15h-4v-2h4V15z M20,11h-4V9h4V11z M20,7h-4V5h4V7z"/>
</svg>
